!!!!SEGMENT: Ser3006-Tant_que_vivray.krn
!!!id: Ser3006
!!!AGN: Chanson
!!!voices: 4
!!!COM: Claudin de Sermisy
!!!OTL: Tant que vivray
**kern	**text	**kern	**text	**kern	**text	**kern	**text
*part4	*part4	*part3	*part3	*part2	*part2	*part1	*part1
*staff4	*staff4	*staff3	*staff3	*staff2	*staff2	*staff1	*staff1
*I"Bassus	*	*I"Tenor	*	*I"Altus	*	*I"Superius	*
*I'B	*	*I'T	*	*I'A	*	*I'S	*
*clefF4	*	*clefGv2	*	*clefG2	*	*clefG2	*
*k[b-]	*	*k[b-]	*	*k[b-]	*	*k[b-]	*
*F:	*	*F:	*	*F:	*	*F:	*
*M2/1	*	*M2/1	*	*M2/1	*	*M2/1	*
*met(C|)	*	*met(C|)	*	*met(C|)	*	*met(C|)	*
=1	=1	=1	=1	=1	=1	=1	=1
1F	Tant	1F	Tant	1f	Tan	1cc	Tant
2F	que	2A	que	2f	que	2cc	que
2G	vi-	2B-y	vi-	2d	vi-	2b-y	vi-
=2	=2	=2	=2	=2	=2	=2	=2
1.F	-vray	1.c	-vray	1.f	-vray	1.a	-vray
2F	en	2d	en	2f	en	2a	en
=3	=3	=3	=3	=3	=3	=3	=3
2C	aa-	2e	aa-	2e	aa-	2g	aa-
2C	-ge	2c	-ge	2g	-ge	2cc	-ge
2G	flo-	2d	flo-	2g	flo-	2cc	flo-
2G	-ris-	2d	-ris-	2g	-ri-	2bnXi	-ri-
=4	=4	=4	=4	=4	=4	=4	=4
0C	-sant,	0c	-sant,	0e	-sant,	0cc	-sant,
=5	=5	=5	=5	=5	=5	=5	=5
1F	Je	1c	Je	1f	Je	1a	Je
2F	ser-	2c	ser-	2f	ser-	2a	ser-
2G	-vi-	2B-y	-vi-	2d	-vi-	2g	-vi-
=6	=6	=6	=6	=6	=6	=6	=6
1.D	-ray	1.A	-ray	1.d	-ray	1.f	-ray
2D	d'a-	2A	d'a-	2d	d'a-	2f	d'a-
=7	=7	=7	=7	=7	=7	=7	=7
2.BB-y	-mours	2.d	-mours	2.f	-mours	2.b-y	-mours
4BB-y	le	4c	le	4e	le	4a	le
2BB-y	roy	2B-y	roy	2d	roy	2g	roy
2BB-y	puis-	2A	puis-	2d	puis-	2f	puis-
=8	=8	=8	=8	=8	=8	=8	=8
0C	-sant	0G	-sant	0c	-sant	0e	-sant
=9	=9	=9	=9	=9	=9	=9	=9
1F	En	1A	En	1c	En	1f	En
2D	fais	2A	fais	2d	fais	2f	fais
2G	en	2B-y	en	2e	en	2g	en
=10	=10	=10	=10	=10	=10	=10	=10
1.F	ditz	4c	ditz	1f	ditz	4a	ditz
.	.	4B-y	.	.	.	4g	.
.	.	4A	.	.	.	4f	.
.	.	4G	.	.	.	4e	.
.	.	2A	.	2c	en	2f	.
2BB-y	en	2B-y	en	[2d	chan-	2g	en
=11	=11	=11	=11	=11	=11	=11	=11
2D	chan-	2A	chan-	2d]	.	2g	chan-
2D	-sons	2F	-sons	2B-y	-sons	2f	-sons
2C	et	2G	et	2c	et	2f	et
2C	ac-	2G	ac-	2c	ac-	2e	ac-
=12	=12	=12	=12	=12	=12	=12	=12
0F	-cordz.	0F	-cordz.	0c	-cordz.	0f	-cordz.
=13	=13	=13	=13	=13	=13	=13	=13
1F	Par	1F	Par	1f	Par	1cc	Par
2F	plu-	2A	plu-	2f	plu-	2cc	plu-
2G	-sieurs	2B-y	-sieurs	2d	-sieurs	2b-y	-sieurs
=14	=14	=14	=14	=14	=14	=14	=14
1.F	fois	1.c	fois	1.f	fois	1.a	fois
2F	m'a	2d	m'a	2f	m'a	2a	m'a
=15	=15	=15	=15	=15	=15	=15	=15
2C	te-	2e	te-	2e	te-	2g	te-
2C	-nu	2c	-nu	2g	-nu	2cc	-nu
2G	lan-	2d	lan-	2g	lan-	2cc	lan-
2G	-guis-	2d	-guis-	2g	-guis-	2bnXi	-guis-
=16	=16	=16	=16	=16	=16	=16	=16
0C	-sant,	0c	-sant,	0e	-sant,	0cc	-sant,
=17	=17	=17	=17	=17	=17	=17	=17
1F	Mais	1c	Mais	1f	Mais	1a	Mais
2F	a-	2c	a-	2f	a-	2a	a-
2G	-pres	2B-y	-pres	2d	-pres	2g	-pres
=18	=18	=18	=18	=18	=18	=18	=18
1.D	deul	1.A	deul	1.d	deul	1.f	deul
2D	m'a	2A	m'a	2d	m'a	2f	m'a
=19	=19	=19	=19	=19	=19	=19	=19
2.BB-y	faict	2.d	faict	2.f	faict	2.b-y	faict
4BB-y	re-	4c	re-	4e	re-	4a	re-
2BB-y	-jo-	2B-y	-jo-	2d	-jo-	2g	-jo-
2BB-y	-ys-	2A	-ys-	2d	-ys-	2f	-ys-
=20	=20	=20	=20	=20	=20	=20	=20
0C	-sant	0G	-sant	0c	-sant	0e	-sant
=21	=21	=21	=21	=21	=21	=21	=21
1F	Car	1A	Car	1c	Car	1f	Car
2D	j'ay	2A	j'ay	2d	j'ay	2f	j'ay
2G	l'a-	2B-y	l'a-	2e	l'a-	2g	l'a-
=22	=22	=22	=22	=22	=22	=22	=22
1.F	-mour	4c	-mour	1f	-mour	4a	-mour
.	.	4B-y	.	.	.	4g	.
.	.	4A	.	.	.	4f	.
.	.	4G	.	.	.	4e	.
.	.	2A	.	2c	de	2f	.
2BB-y	de	2B-y	de	[2d	la	2g	de
=23	=23	=23	=23	=23	=23	=23	=23
2D	la	2A	la	2d]	.	2g	la
2D	belle	2F	belle	2B-y	belle	2f	belle
2C	au	2G	au	2c	au	2f	au
2C	gent	2G	gent	2c	gent	2e	gent
=24	=24	=24	=24	=24	=24	=24	=24
0F	corps.	0F	corps.	0c	corps.	0f	corps.
=25	=25	=25	=25	=25	=25	=25	=25
2B-y	Son	0r	.	2d	Son	2f	Son
4B-y	al-	.	.	4d	al-	4f	al-
4B-y	-li-	.	.	4d	-li-	4g	-li-
2A	-an-	.	.	2e	-an-	2a	-an-
2F	-ce	.	.	2f	-ce	2a	-ce
=26	=26	=26	=26	=26	=26	=26	=26
2B-y	C'est	2d	C'est	1r	.	2f	C'est
4B-y	ma	4d	ma	.	.	4f	ma
4B-y	fi-	4d	fi-	.	.	4g	fi-
2A	-an-	2e	-an-	2r	.	2a	-an-
2F	-ce,	2f	-ce,	[2c	Son	2a	-ce,
=27	=27	=27	=27	=27	=27	=27	=27
2F	Son	1r	.	4c]	.	2cc	Son
.	.	.	.	4d	ceuer	.	.
4C	cueur	.	.	2e	est	4cc	cueur
4C	est	.	.	.	.	4b-y	est
1F	mien,	2r	.	1c	mien,	1a	mien,
.	.	[2c	Le	.	.	.	.
=28	=28	=28	=28	=28	=28	=28	=28
2F	Le	4c]	.	0r	.	2cc	Le
.	.	4d	mien	.	.	.	.
4C	mien	2e	est	.	.	4cc	mien
4C	est	.	.	.	.	4b-y	est
1F	sien.	1c	sien.	.	.	1a	sien.
=29	=29	=29	=29	=29	=29	=29	=29
2B-y	Fy	0r	.	2d	Fy	2f	Fy
4B-y	de	.	.	4d	de	4f	de
4B-y	tris-	.	.	4d	tris-	4g	tris-
2A	-tes-	.	.	2e	-tes-	2a	-tes-
2F	-se,	.	.	2f	-se,	2a	-se,
=30	=30	=30	=30	=30	=30	=30	=30
2B-y	Vi-	2d	Vi-	0r	.	2f	Vi-
4B-y	-ve	4d	-ve	.	.	4f	-ve
4B-y	ly-	4d	ly-	.	.	4g	ly-
2A	-es-	2e	-es-	.	.	2a	-es-
2F	-se,	2f	-se,	.	.	2a	-se,
=31	=31	=31	=31	=31	=31	=31	=31
2F	Puis-	2A	Puis-	2f	Puis-	2cc	Puis-
4F	-qu'en	4A	-qu'en	4f	-qu'en	4cc	-qu'en
4G	a-	4B-y	a-	4d	a-	4b-y	a-
1F	-mour,	1c	-mour,	1f	-mour,	1a	-mour,
=32	=32	=32	=32	=32	=32	=32	=32
2F	puis-	2A	puis-	2f	puis-	2cc	puis-
4F	-qu'en	4A	-qu'en	4f	-qu'en	4cc	-qu'en
4G	a-	4B-y	a-	4d	a-	4b-y	a-
2F	-mour	2c	-mour	2f	-mour	2a	-mour
2C	a	2c	a	2e	a	2g	a
=33	=33	=33	=33	=33	=33	=33	=33
1D	tant	2A	tant	2d	tant	4g	tant
.	.	.	.	.	.	4f	.
.	.	2F	.	2B-y	.	1f	de
1C	de	1G	de	1c	de	.	.
.	.	.	.	.	.	2e	.
=34	=34	=34	=34	=34	=34	=34	=34
0F	bien,	0c	bien,	0A	bien,	0f	bien,
=35	=35	=35	=35	=35	=35	=35	=35
2F	Puis-	2A	Puis-	2f	Puis-	2cc	Puis-
4F	-qu'en	4A	-qu'en	4f	-qu'en	4cc	-qu'en
4G	a-	4B-y	a-	4d	a-	4b-y	a-
1F	-mour,	1c	-mour,	1f	-mour,	1a	-mour,
=36	=36	=36	=36	=36	=36	=36	=36
2F	puis-	2A	puis-	2f	puis-	2cc	puis-
4F	-qu'en	4A	-qu'en	4f	-qu'en	4cc	-qu'en
4G	a-	4B-y	a-	4d	a-	4b-y	a-
2F	-mour	2.c	-mour	2f	-mour	2a	-mour
2C	a	.	.	2e	a	[2g	a
.	.	4B-y	a	.	.	.	.
=37	=37	=37	=37	=37	=37	=37	=37
1D	tant	2A	tant	2d	tant	4g]	.
.	.	.	.	.	.	4f	.
.	.	2F	.	2B-y	.	1f	tant
1C	de	1G	de	1c	de	.	.
.	.	.	.	.	.	2e	de
=38	=38	=38	=38	=38	=38	=38	=38
00Fl	bien.	00Fl	bien.	00Al	bien.	00fl	bien.
==	==	==	==	==	==	==	==
*-	*-	*-	*-	*-	*-	*-	*-
!!!system-decoration: [*]
!!!RDF**kern: i = editorial accidental
!!!RDF**kern: l = terminal long
!!!ENC: Benjamin Ory
!!!END: 2024/2/12
!!!EED: Benjamin Ory
!!!EEV: 2024/02/12
!!!YEC: Copyright 2024 Benjamin Ory, All Rights Reserved
!!!ONB: Translated from MusicXML on 2024/02/12
